X:1
T:T
T:Chantez dansez
T:Lied / HS.81.Vanpelt.277
T:Een speelmansboek uit Maastricht/Tongeren (1786-1824) 
T:BRON: Lusthof-der-muziek.blogspot.com: Handschrift van VanPelt (1786-1824)  / Transcriptie door Ad Kwakernaat (2015) 
T:Naar een origineel van Grétry André-Ernest-Modeste (1741-1813) 
T:Genoteerd door Van der Elst Johan
Z:Een speelmansboek uit Maastricht/Tongeren (1786-1824)
Z:Genoteerd door Van der Elst Johan
L:1/8
Q:1/4=100
M:3/8
K:C
V:1 treble nm="Viool" snm="Vl."
V:1
 ABA | c3 | BcB | d3 | (cAc) | ece | dBd | !breath!c2 A | cdc | e3 | ded | g3 | gag | edc | agf | %15
 Pd3 | %16
"_BRON: Alamire uitgave \"Speelmansboek uit Maastricht\" \nvermeldt bij concordatie:\n              + Grétry André-Ernest-Modeste (1741-1813), \nLa Rosière de Salenci \n(1774)\n              + La Clé du Caveau (Paris, 4de ed., 1848): 836\n" c3 | %17
 E^F^G | ABc | BcA | d3 | Bcd | e^ga |{e} dcB | A3 |] %25

